src/sentry/static/sentry/images/logos/logo-auth0.svg

<svg xmlns="http://www.w3.org/2000/svg" viewBox="0 0 80 80"><path d="M61 64.56L53 39.9l21-15.23H48L40 0h25.93l8 24.66a35.69 35.69 0 01-13 39.9zm-42 0l21 15.25 21-15.25-21-15.24zM6 24.66a35.72 35.72 0 0013 39.91l8-24.67L6 24.67h26L40 0H14.07z" fill="#eb5424" fill-rule="evenodd"/></svg>

<svg xmlns="http://www.w3.org/2000/svg" viewBox="0 0 80 80"><title>logos</title><path d="M61,64.56,53,39.9l21-15.23H48L40,0H65.93l8,24.66h0a35.69,35.69,0,0,1-13,39.9ZM19,64.56h0L40,79.81,61,64.56,40,49.32Zm-13-39.9A35.72,35.72,0,0,0,19,64.57h0L27,39.9l-21-15.23H32L40,0H14.07Z" style="fill:#eb5424;fill-rule:evenodd"/></svg>
